public/buddhist.svg

<?xml version="1.0" encoding="UTF-8"?>
<svg width="57px" height="55px" viewBox="0 0 57 55" version="1.1" xmlns="http://www.w3.org/2000/svg" xmlns:xlink="http://www.w3.org/1999/xlink">
    <!-- Generator: Sketch 48.2 (47327) - http://www.bohemiancoding.com/sketch -->
    <title>Shape</title>
    <desc>Created with Sketch.</desc>
    <defs></defs>
    <g id="Page-1" stroke="none" stroke-width="1" fill="none" fill-rule="evenodd">
        <path d="M28.399805,0.402862554 C28.380855,0.621487412 28.3343702,1.55862369 28.2964701,2.48545827 C28.2586337,3.41229286 28.2005753,4.62846517 28.1675082,5.18806341 C28.134441,5.74766165 28.1033451,6.49167294 28.0984487,6.84142184 C28.0831869,7.9334015 28.0876382,7.92119208 27.6301031,8.13523841 C26.9707946,8.44384412 26.6562114,9.03511053 26.8631991,9.57703055 C26.9793158,9.88105773 27.2823255,10.1836859 27.6404684,10.3532823 L27.8835757,10.4683815 L27.8594112,11.4846882 C27.8461207,12.0436506 27.8110822,12.5653487 27.7815126,12.644074 C27.7313395,12.7776145 27.6902599,12.7871531 27.1644283,12.7871531 C26.8546144,12.7871531 26.5855621,12.8027964 26.5664213,12.8218737 C26.5473441,12.8410145 26.6228263,13.105679 26.7342372,13.4100877 C26.9243098,13.9293694 26.9365828,14.0147082 26.9332761,14.7902605 L26.929715,15.6169397 L26.5481708,15.648735 L26.1666265,15.6805304 L26.1200781,16.0620746 C26.0945146,16.271924 26.0897453,16.6725455 26.1095856,16.9523446 C26.162048,17.6929856 26.1184248,17.7672595 25.5519587,17.901881 C23.2267009,18.4543571 21.0222653,19.8544338 19.3179072,21.860975 C18.9784599,22.2606426 18.3056702,23.2971712 18.032103,23.8418256 C17.7332267,24.436971 17.3327324,25.4327379 17.2235472,25.8524366 C16.8362797,27.3404592 16.8460091,27.2338176 16.8076003,30.4094104 L16.7716716,33.3740093 L17.1132173,33.4072036 C17.3926348,33.4343568 38.4445934,33.4265988 39.7976129,33.3988096 L40.2017955,33.3905428 L40.168474,30.4812679 C40.1424654,28.2100621 40.1135952,27.4673863 40.0369684,27.0950627 C39.9829163,26.832751 39.9223779,26.5322849 39.9024104,26.4273602 C39.8538907,26.1724251 39.5780342,25.3176387 39.3791861,24.8057971 C38.8478221,23.4380882 38.0173274,22.1834435 36.9161271,21.084596 C36.0161278,20.186568 35.9050349,20.0927717 35.089802,19.5415039 C33.9577602,18.7761897 32.3640498,18.0758016 31.2220879,17.8417242 C31.0996758,17.8166695 30.9709046,17.773237 30.9358661,17.7452571 C30.8978389,17.7147972 30.8749462,17.3020935 30.8789524,16.719221 C30.8834674,16.070723 30.8621645,15.7284778 30.8154253,15.6973819 C30.7767621,15.6716913 30.5990261,15.6502612 30.4204634,15.6496889 L30.0957692,15.648735 L30.0544353,15.1531091 C29.9983483,14.4812096 30.0590774,13.9235191 30.2460977,13.3912649 C30.3321359,13.1464406 30.4081268,12.9175141 30.4148674,12.8825392 C30.4221803,12.8448299 30.1865132,12.8115084 29.8365099,12.8006344 C29.293636,12.7837828 29.2414917,12.7709375 29.1929719,12.6416576 C29.163911,12.5642677 29.1292541,12.0448588 29.1159636,11.4872954 L29.0917991,10.4736595 L29.3440635,10.3426627 C29.9646452,10.0205122 30.3012308,9.42517594 30.1395832,8.93552748 C30.0341498,8.61592058 29.5801122,8.17262974 29.2601237,8.07673495 C29.1187616,8.03438354 28.9861114,7.95546747 28.9653172,7.90141537 C28.9200406,7.78332742 28.7747358,5.05751168 28.6156319,1.34082551 C28.5513417,-0.160296764 28.5666035,0.00542062319 28.4927746,0.00542062319 C28.4605342,0.00542062319 28.4186915,0.184301288 28.399805,0.402862554 M14.3387546,34.0683562 C13.8643044,34.3180133 13.6315624,34.6577785 13.5687347,35.1922584 C13.5349045,35.4796884 13.5527735,35.5944696 13.6685086,35.8335071 C13.8444641,36.196928 14.2416516,36.5434974 14.5494942,36.6020644 C14.6783926,36.6265468 20.9824576,36.6450517 28.5585274,36.6430804 C43.9975249,36.6391378 42.6434879,36.6833333 43.0834721,36.1693296 C43.5480658,35.6264558 43.5415159,34.9253046 43.0668749,34.3999182 C42.6371289,33.9242597 43.9253495,33.9626049 28.4640316,33.9654029 C15.8949465,33.9676921 14.5108311,33.977803 14.3387546,34.0683562 M12.4904907,37.1778783 C11.7898482,37.523621 11.4471579,38.2211475 11.6351321,38.9190555 C11.7317263,39.2779615 12.1876717,39.7678007 12.5168808,39.8664299 C12.7016118,39.9217538 16.7261406,39.9403859 28.5129965,39.9403859 C45.761404,39.9403859 44.4466661,39.9711002 44.9178732,39.557379 C45.2671134,39.250681 45.3633897,39.0251248 45.3656154,38.5084503 C45.3672688,38.1166043 45.3442489,38.0276409 45.1770054,37.7786197 C45.0722715,37.6226953 44.8584795,37.4085218 44.7018556,37.302834 L44.41716,37.1105993 L28.5512781,37.0961642 C14.4990032,37.0833825 12.6631395,37.0927303 12.4904907,37.1778783 M10.5675712,40.5061524 C9.97185347,40.7119319 9.61441009,41.1881628 9.55380815,41.8570098 C9.52551028,42.1687315 9.54655881,42.2782983 9.69135485,42.5743766 C9.7861686,42.7680103 9.96714776,43.0049493 10.0974451,43.1058678 C10.6022918,43.4969506 9.15236,43.46878 28.5194827,43.4635019 C42.1091352,43.4598137 46.3043415,43.4408636 46.4453221,43.3827417 C47.1868533,43.0769976 47.5861394,42.2574405 47.3704397,41.4839232 C47.2533056,41.0639701 46.7574889,40.5735586 46.3398887,40.4645641 C46.1018051,40.402436 42.2719274,40.385966 28.4708994,40.3876193 C11.6101409,40.3895906 10.8913115,40.3943599 10.5675712,40.5061524 M8.3420236,44.0613182 C7.4673334,44.406107 7.07605976,45.4619035 7.5083494,46.3110303 C7.66071274,46.6102246 7.78274331,46.7354347 8.17045586,46.9905606 L8.4248187,47.1579313 L28.455892,47.1579313 L48.4869654,47.1579313 L48.7413282,47.0204482 C49.469887,46.6265674 49.8031023,45.8559116 49.5778004,45.0859553 C49.4482025,44.643046 49.1758435,44.3181611 48.7607234,44.1113005 L48.4301789,43.9466005 L28.5229166,43.9500344 C9.96161536,43.9532776 8.59708593,43.9607813 8.3420236,44.0613182 M0.0596517038,47.7268774 C-0.0143678815,47.800897 -0.0222531294,54.8157153 0.051512093,54.9319591 C0.0918286025,54.9954862 5.82821928,55.0083316 28.5232982,54.9955498 L56.9445297,54.9795886 L56.9609361,51.3904018 C56.9721916,48.9321757 56.9562304,47.7801028 56.9101907,47.7340632 C56.8214181,47.6452905 0.148424334,47.6381048 0.0596517038,47.7268774" id="Shape" fill="#6BABB5"></path>
    </g>
</svg>

<svg width="57" height="55" xmlns="http://www.w3.org/2000/svg">
    <path d="M28.4.403a83.814 83.814 0 0 0-.104 2.082c-.037.927-.095 2.143-.128 2.703-.034.56-.065 1.304-.07 1.653-.015 1.092-.01 1.08-.468 1.294-.66.309-.974.9-.767 1.442.116.304.42.607.777.776l.244.115-.025 1.017c-.013.559-.048 1.08-.077 1.16-.05.133-.092.142-.618.142-.31 0-.578.016-.598.035-.019.019.057.284.168.588.19.52.203.605.2 1.38l-.004.827-.382.032-.381.032-.047.381c-.025.21-.03.61-.01.89.052.741.008.815-.558.95-2.325.552-4.53 1.952-6.234 3.959-.34.4-1.012 1.436-1.286 1.98-.299.596-.7 1.592-.808 2.011-.388 1.488-.378 1.382-.416 4.557l-.036 2.965.341.033c.28.027 21.332.02 22.685-.008l.404-.008-.034-2.91c-.026-2.27-.054-3.014-.131-3.386a64.542 64.542 0 0 1-.135-.668c-.048-.255-.324-1.11-.523-1.621-.531-1.368-1.362-2.623-2.463-3.721-.9-.898-1.011-.992-1.826-1.543-1.132-.766-2.726-1.466-3.868-1.7a.957.957 0 0 1-.286-.097c-.038-.03-.061-.443-.057-1.026.004-.648-.017-.99-.064-1.022-.038-.025-.216-.047-.395-.047l-.324-.001-.042-.496c-.056-.672.005-1.23.192-1.762a9.4 9.4 0 0 0 .169-.508c.007-.038-.228-.071-.578-.082-.543-.017-.596-.03-.644-.16-.03-.077-.064-.596-.077-1.154l-.024-1.013.252-.131c.62-.322.957-.918.796-1.407-.106-.32-.56-.763-.88-.86-.141-.042-.274-.12-.295-.175-.045-.118-.19-2.843-.35-6.56-.064-1.501-.048-1.336-.122-1.336-.032 0-.074.18-.093.398M14.339 34.068c-.475.25-.707.59-.77 1.124-.034.288-.016.402.1.642.175.363.573.71.88.768.13.025 6.433.043 14.01.041 15.439-.004 14.084.04 14.524-.474.465-.543.459-1.244-.016-1.77-.43-.475.858-.436-14.603-.434-12.57.003-13.953.013-14.125.103m-1.849 3.11c-.7.346-1.043 1.043-.855 1.741.097.359.553.849.882.947.185.056 4.21.074 15.996.074 17.248 0 15.934.031 16.405-.383.35-.306.445-.532.448-1.049.001-.391-.022-.48-.189-.73a2.1 2.1 0 0 0-.475-.475l-.285-.192-15.866-.015c-14.052-.013-15.888-.003-16.06.082m-1.923 3.328c-.596.206-.954.682-1.014 1.351-.028.312-.007.421.137.717.095.194.276.43.406.532.505.391-.945.363 18.422.358 13.59-.004 17.785-.023 17.926-.081a1.596 1.596 0 0 0 .925-1.9c-.117-.419-.613-.91-1.03-1.018-.238-.063-4.068-.079-17.87-.077-16.86.002-17.579.006-17.902.118m-2.226 3.555c-.875.345-1.266 1.4-.834 2.25.153.3.275.424.662.68l.255.167h40.062l.254-.138c.729-.393 1.062-1.164.837-1.934a1.525 1.525 0 0 0-.817-.975l-.33-.164-19.908.003c-18.561.003-19.926.01-20.181.111M.06 47.727c-.074.074-.082 7.089-.008 7.205.04.063 5.776.076 28.471.064l28.422-.016.016-3.59c.011-2.458-.005-3.61-.05-3.656-.09-.089-56.763-.096-56.851-.007" fill="#6BABB5" fill-rule="evenodd"/>
</svg>
